assets/img/wp.svg

<svg xmlns="http://www.w3.org/2000/svg" width="60" height="60" viewBox="0 0 60 60">
  <path fill="#464342" d="M4.24780488,29.8829269 C4.24780488,40.0302438 10.144878,48.7995122 18.6960976,52.955122 L6.46731708,19.4497561 C5.04487805,22.6380488 4.24780488,26.1663415 4.24780488,29.8829269 Z M47.190244,28.5892683 C47.190244,25.4209755 46.0521952,23.2268293 45.0760976,21.5190244 C43.7765855,19.4073171 42.5585365,17.6190244 42.5585365,15.5073171 C42.5585365,13.1507317 44.3458538,10.9570732 46.8634146,10.9570732 C46.9770731,10.9570732 47.0848781,10.9712195 47.1956098,10.977561 C42.6346341,6.79902438 36.5580487,4.24780488 29.8839023,4.24780488 C20.9278049,4.24780488 13.0482927,8.84292682 8.46439024,15.8029268 C9.06585366,15.8209756 9.63268294,15.8336585 10.1141464,15.8336585 C12.7956098,15.8336585 16.9463415,15.5082927 16.9463415,15.5082927 C18.3282927,15.4268293 18.4912195,17.4565854 17.1107317,17.62 C17.1107317,17.62 15.7219512,17.7834146 14.1765854,17.8643902 L23.5121951,45.6326829 L29.1224391,28.8068292 L25.1282927,17.8634146 C23.7478048,17.782439 22.44,17.6190244 22.44,17.6190244 C21.0585366,17.5380488 21.2204878,15.4258537 22.6019512,15.5073171 C22.6019512,15.5073171 26.8356098,15.8326829 29.3546341,15.8326829 C32.0356097,15.8326829 36.1868292,15.5073171 36.1868292,15.5073171 C37.5697561,15.4258537 37.7321951,17.4556098 36.3512196,17.6190244 C36.3512196,17.6190244 34.9595121,17.782439 33.4170731,17.8634146 L42.6814634,45.4214634 L45.2385366,36.8765855 C46.3468294,33.3307317 47.190244,30.7839023 47.190244,28.5892683 Z M30.3336586,32.1253659 L22.6419512,54.4760977 C24.9385366,55.1512195 27.3673172,55.5204879 29.8839023,55.5204879 C32.8692682,55.5204879 35.7321952,55.0043902 38.3970731,54.0673172 C38.3282927,53.957561 38.2658536,53.8409756 38.2146342,53.7141464 L30.3336586,32.1253659 Z M52.3785366,17.5834146 C52.4887805,18.4 52.5512196,19.2765854 52.5512196,20.2195122 C52.5512196,22.8209756 52.0653659,25.7453658 50.6019513,29.4019512 L42.7712196,52.0424391 C50.3926828,47.5980487 55.5190245,39.3409755 55.5190245,29.8834146 C55.5195122,25.4263416 54.3809756,21.235122 52.3785366,17.5834146 Z M29.8839023,0 C13.4063415,0 0,13.4053658 0,29.8829269 C0,46.362439 13.4063415,59.7673172 29.8839023,59.7673172 C46.3609755,59.7673172 59.7692684,46.362439 59.7692684,29.8829269 C59.7687804,13.4053658 46.3609755,0 29.8839023,0 Z M29.8839023,58.397561 C14.1619512,58.397561 1.3702439,45.6058538 1.3702439,29.8829269 C1.3702439,14.1609756 14.1614634,1.3702439 29.8839023,1.3702439 C45.6053658,1.3702439 58.3960976,14.1609756 58.3960976,29.8829269 C58.3960976,45.6058538 45.6053658,58.397561 29.8839023,58.397561 Z"/>
</svg>

<svg xmlns="http://www.w3.org/2000/svg" width="60" height="60" xmlns:v="https://vecta.io/nano"><path fill="#464342" d="M4.248 29.883c0 10.147 5.897 18.917 14.448 23.072L6.467 19.45a25.54 25.54 0 0 0-2.22 10.433zM47.2 28.59c0-3.168-1.138-5.362-2.114-7.07-1.3-2.112-2.518-3.9-2.518-6.012 0-2.357 1.787-4.55 4.305-4.55.114 0 .22.014.332.02a25.54 25.54 0 0 0-17.312-6.73c-8.956 0-16.836 4.595-21.42 11.555l1.65.03c2.68 0 6.832-.325 6.832-.325 1.382-.08 1.545 1.948.164 2.112 0 0-1.39.163-2.934.244l9.336 27.768 5.6-16.826-3.994-10.943c-1.38-.08-2.688-.244-2.688-.244-1.38-.08-1.22-2.193.162-2.112 0 0 4.234.325 6.753.325 2.68 0 6.832-.325 6.832-.325 1.383-.08 1.545 1.948.164 2.112 0 0-1.392.163-2.934.244L42.68 45.42l2.557-8.545c1.108-3.546 1.952-6.093 1.952-8.287zm-16.857 3.536l-7.692 22.35c2.297.675 4.725 1.044 7.242 1.044a25.61 25.61 0 0 0 8.513-1.453 2.25 2.25 0 0 1-.182-.353l-7.88-21.59zM52.38 17.583a19.67 19.67 0 0 1 .173 2.636c0 2.6-.486 5.526-1.95 9.182l-7.83 22.64c7.62-4.444 12.748-12.7 12.748-22.16 0-4.457-1.138-8.648-3.14-12.3zM29.884 0C13.406 0 0 13.405 0 29.883s13.406 29.884 29.884 29.884S59.77 46.362 59.77 29.883 46.36 0 29.884 0zm0 58.398c-15.722 0-28.514-12.792-28.514-28.515S14.16 1.37 29.884 1.37s28.512 12.79 28.512 28.513-12.79 28.515-28.512 28.515z"/></svg>
